X: 27036
T: Miss Grant Of Grant
R: reel
M: 4/4
K: Fmajor
B|:AFFCF2Ac|dfcf AGGB|AFFC DEFd|cAfc AFFB:|
Acfc Afcf|dfcf AGGB|Acfc Afcf|egce fFFB|
Acfc Afcf|dfcA GABd|cAFB AFAc|defg aff||

